X:1
T:PRETTY LITTLE BABY
M:4/4
L:1/8
K:C
 A2| c2e-d e c3| ed e c- c4| A4- c2 z2| AB AB A2 G2| G4- A2 z2| AA GG G2 E2|\
 C3 E G2 EC| B, B,3 A,2||
